X:1
T:Title
%%score { ( 1 3 ) | ( 2 4 5 ) }
L:1/8
Q:1/4=110
M:4/4
K:C
V:1 treble nm="Grand Piano"
V:3 treble 
V:2 bass 
V:4 bass 
V:5 bass 
V:1
 [EG]2 [EG]2 e2 d2 | [Gc]4 [EG]4 | A2 A2 c2 c2 | G8 | ^G2 G2 A2 c2 | e4 [^Gd]4 | %6
w: John~Goss * * *||||||
 [Ac]2 [EA]2 G2 ^F2 | G8 | G2 G2 A2 E2 | G4 F4 | B2 G2 c2 E2 | D8[K:bass] | E2 C2[K:treble] F2 D2 | %13
w: |||||||
 G2 E2 A2 C2 | [CE]4[K:bass] [B,D]4 | [E,C]8 | c2 G2 E2 C2 | [CFA]4 [CEG]4 | C2 D2 E2 F2 | G8 | %20
w: |||||||
 [CEc]3 [CEc] [CAc]2 [CAc]2 | [Ge]4 [CGc]4 | G2 c2 d3 [Ec] |[M:8/4] [Ec]8 z8 |[M:4/4] [Fc]8 | %25
w: |||||
 [Ec]8 |] %26
w: |
V:2
 [C,C]2 [C,C]2[K:treble] [CG]2 [G,B,G]2 | [E,C]4 [C,C]4 | [F,CF]2 [F,CF]2 [A,CF]2 [A,CF]2 | [CE]8 | %4
 [B,DE]2 [B,DE]2 [A,CE]2 [A,CE]2 | [^G,B,E]4 [E,B,]4 | [A,C]2 [C,C]2 [D,B,D]2 [D,A,D]2 | [G,B,D]8 | %8
 [G,E]2 [G,E]2 [G,^C]2 [G,C]2 | [G,E]4 [G,D]4 | [G,DF]2 [G,DF]2 [G,CE]2 [G,C]2 | [G,B,]8 | %12
 [C,G,C]2 [E,G,]2 [D,G,B,]2 [F,G,B,]2 | [E,G,C]2 [G,C]2 [F,A,C]2 A,2 | G,6 z2 | C,8 | %16
 C2 G,2 E,2 C,2 | F,4 C,4 | C,2 D,2 E,2 F,2 | G,8 | A,3 A, F,2 F,2 | C4 E,2 F,2 | %22
 [G,CE]2 [G,CE]2 [G,,G,B,F]3 [G,,G,] |[M:8/4] [C,G,]8 z8 |[M:4/4] [F,A,]8 | [C,G,]8 |] %26
V:3
 x8 | x8 | x8 | x8 | x8 | x8 | x8 | x8 | x8 | z2 A,2 z2 C2 | x8 | z2[K:bass] F,2 E,2 D,2 | %12
 x4[K:treble] x4 | x8 | x4[K:bass] x4 | x8 | x8 | x8 | x8 | x8 | x8 | x8 | x8 |[M:8/4] x16 | %24
[M:4/4] x8 | x8 |] %26
V:4
 x4[K:treble] x4 | x8 | x8 | x8 | x8 | x8 | x8 | x8 | x8 | z4 B,2 z2 | x8 | x8 | x8 | x8 | %14
 z4 z2 F,2 | x8 | x8 | x8 | x8 | x8 | x8 | x8 | x8 |[M:8/4] x16 |[M:4/4] x8 | x8 |] %26
V:5
 x4[K:treble] x4 | x8 | x8 | x8 | x8 | x8 | x8 | x8 | x8 | x8 | x8 | x8 | x8 | x8 | z4 G,,4 | x8 | %16
 x8 | x8 | x8 | x8 | x8 | x8 | x8 |[M:8/4] x16 |[M:4/4] x8 | x8 |] %26

